X:1
T:Le Papillon
T:Pièces Faciles et Agréables pour la Flûte ou Violon et Guitare 
T:Mauro Giuliani  (1781-1829)
T:Op.74
C:Giuliani
%%score { 1 ( 2 3 ) ( 4 5 ) }
L:1/8
Q:1/4=108
M:4/4
K:C
V:1 treble nm="Flûte"
V:2 treble-8 nm="Classical Guitar"
V:3 treble-8 
V:4 tab stafflines=6 strings=E2,A2,D3,G3,B3,E4 nostems nm="Guitare classique [Tablature]"
V:5 tab stafflines=6 strings=E2,A2,D3,G3,B3,E4 nostems 
V:1
"^Sostenuto" g>f |"_" e2 e>d c2 c>B | B2 A2 z2!<(! A>A | A2!<)! a2 g!>(!fed | %4
 c4!>)!{dc} B z d>d | e2 d2 z2 d>d | d2 b2- (3bag (3^fge | (e2 d>)B (d2 c>)A | G2 z2 z bag | %9
 ^fgab c'aef | g>b d2 z BAG | ^FGAB cAEF | G4 z2 B>c | d2 d2 =f2 f2 | e4 z fed | d c2 A c B2 ^G | %16
 A2 z2 z2 c>c |"_" c2 f>c c2 g>c | c2 a2 z3/2"_" ^g/ a>b | c'2 ^d2 d2 d2 | e3 z"_" g2 f>d | %21
 c2 z2 z"_" gab | (c'a)ff (ef)gf | ^d2 e2 z efg | (^ga)=gf edfd | B2 c2 z Gce | g f2 e g f2 e | %27
 d2 z2 z2 g>f | e2 e>d c2 c>B | B2 A2 z2!<(! A>A | A2!<)! a2 g!>(!fed | c4!>)!{dc} B z g>g | %32
 a2 g2 z2 g>g | g2 e'2- (3e'd'c' (3bc'a | (a2 g>)e (g2 f>)d | c2 z2 z e'd'c' | (c'b)ag (^fg)ab | %37
 c'2 g2 z edc | (cB)AG (^FG)AB | c2 z2"_"{/b} c'2 z2 | c4 z4 |] %41
V:2
 z2 |"^Sostenuto" z Gce z Gcg | z Acf z A^cg | z Adf z Adf | z Gce [Gd] z z2 | z DAc z DAc | %6
 z DGB z Gce | z GBg z Ad^f | z [DGB][DGB][DGB] z [DGB][DGB][DGB] | %9
 z [DAc][DAc][DAc] z [DAc][DAc][DAc] | z [DGB][DGB][DGB] z [DGB][DGB][DGB] | %11
 z [DAc][DAc][DAc] z [DAc][DAc][DAc] | [GB]2"_" [GBg]2 [GBg]2 z2 |"_" z Gdf z Adf | %14
 z Bde z ^GBe | A,[Ac]F[Ac] D[AB]E[^GB] | z AEC A,2 z2 |"_" z Acf z _Bcg | z Acf z4 | %19
"_" z2 [A^d]2 [Ad]2 [Ad]2 | z ^GBe"_" [=Gdf]4 | [ce]2 z2 z4 | z2 c2 c2 c2 | z2 B2 B2 B2 | %24
 z2 A2 A2 A2 | z2 G2 G2 G2 | [GB]2 [Gc]2 [GB]2 [Gc]2 | [GB]2 gG fGdG | z Gce z Gcg | z Acf z A^cg | %30
 z Adf z Adf | z Gce [Gd] z z2 | z Gdf z Gdf | z Gce z Acf | z Gce z GBf | %35
 z [Gce][Gce][Gce] z [Gce][Gce][Gce] | z [Gdf][Gdf][Gdf] z [Gdf][Gdf][Gdf] | %37
 z [Gce][Gce][Gce] z [Gce][Gce][Gce] | z [Gdf][Gdf][Gdf] z [Gdf][Gdf][Gdf] | [Gce]2 Cc G,G E,E | %40
 [EGce]4 z4 |] %41
V:3
 x2 | C4 E4 | F4 E4 | D4 F,4 | G,4 G, z z2 | ^F,4 F,4 | G,4 C4 | D4 D4 | G,4 G,4 | G,4 G,4 | %10
 G,4 G,4 | G,4 G,4 | G,2 G,2 G,2 z2 | B,4 A,4 | ^G,4 E,4 | A,2 F2 D2 E2 | A,4 x4 | F,4 E,4 | %18
 F,4 F,2 z2 | z2 F2 F2 F2 | E4 B,4 | CEGc C z z2 | z2 A2 A2 A2 | z2 G2 G2 G2 | z2 F2 F2 F2 | %25
 z2 E2 E2 E2 | D2 C2 D2 C2 | G,2 G,2 A,2 B,2 | C4 E4 | F4 E4 | D4 F,4 | G,4 G, z z2 | B,4 B,4 | %33
 C4 F,4 | G,4 G,4 | C4 C4 | C4 C4 | C4 C4 | C4 C4 | C2 C2 G,2 E,2 | C4 z4 |] %41
V:4
 x2 | x !3!G, !2!C !1!E x !3!G, !2!C !1!G | x !3!A, !2!C !1!F x !3!A, !2!^C !1!G | %3
 x !3!A, !2!D !1!F x !3!A, !2!D !1!F | x !3!G, !2!C !1!E [!3!G,!2!D] x x2 | %5
 x !4!D, !3!A, !2!C x !4!D, !3!A, !2!C | x !4!D, !3!G, !2!B, x !3!G, !2!C !1!E | %7
 x !3!G, !2!B, !1!G x !3!A, !2!D !1!^F | %8
 x [!4!D,!3!G,!2!B,] [!4!D,!3!G,!2!B,] [!4!D,!3!G,!2!B,] x [!4!D,!3!G,!2!B,] [!4!D,!3!G,!2!B,] [!4!D,!3!G,!2!B,] | %9
 x [!4!D,!3!A,!2!C] [!4!D,!3!A,!2!C] [!4!D,!3!A,!2!C] x [!4!D,!3!A,!2!C] [!4!D,!3!A,!2!C] [!4!D,!3!A,!2!C] | %10
 x [!4!D,!3!G,!2!B,] [!4!D,!3!G,!2!B,] [!4!D,!3!G,!2!B,] x [!4!D,!3!G,!2!B,] [!4!D,!3!G,!2!B,] [!4!D,!3!G,!2!B,] | %11
 x [!4!D,!3!A,!2!C] [!4!D,!3!A,!2!C] [!4!D,!3!A,!2!C] x [!4!D,!3!A,!2!C] [!4!D,!3!A,!2!C] [!4!D,!3!A,!2!C] | %12
 [!3!G,!2!B,]2 [!3!G,!2!B,!1!G]2 [!3!G,!2!B,!1!G]2 x2 | x !3!G, !2!D !1!F x !3!A, !2!D !1!F | %14
 x !3!B, !2!D !1!E x !3!^G, !2!B, !1!E | %15
 !5!A,, [!3!A,!2!C] !4!F, [!3!A,!2!C] !4!D, [!3!A,!2!B,] !4!E, [!3!^G,!2!B,] | %16
 x !3!A, !4!E, !5!C, !5!A,,2 x2 | x !3!A, !2!C !1!F x !3!_B, !2!C !1!G | x !3!A, !2!C !1!F x4 | %19
 x2 [!3!A,!2!^D]2 [!3!A,!2!D]2 [!3!A,!2!D]2 | x !3!^G, !2!B, !1!E [!3!=G,!2!D!1!F]4 | %21
 [!2!C!1!E]2 x2 x4 | x2 !2!C2 !2!C2 !2!C2 | x2 !2!B,2 !2!B,2 !2!B,2 | x2 !3!A,2 !3!A,2 !3!A,2 | %25
 x2 !3!G,2 !3!G,2 !3!G,2 | [!3!G,!2!B,]2 [!3!G,!2!C]2 [!3!G,!2!B,]2 [!3!G,!2!C]2 | %27
 [!3!G,!2!B,]2 !1!G !3!G, !1!F !3!G, !2!D !3!G, | x !3!G, !2!C !1!E x !3!G, !2!C !1!G | %29
 x !3!A, !2!C !1!F x !3!A, !2!^C !1!G | x !3!A, !2!D !1!F x !3!A, !2!D !1!F | %31
 x !3!G, !2!C !1!E [!3!G,!2!D] x x2 | x !3!G, !2!D !1!F x !3!G, !2!D !1!F | %33
 x !3!G, !2!C !1!E x !3!A, !2!C !1!F | x !3!G, !2!C !1!E x !3!G, !2!B, !1!F | %35
 x [!3!G,!2!C!1!E] [!3!G,!2!C!1!E] [!3!G,!2!C!1!E] x [!3!G,!2!C!1!E] [!3!G,!2!C!1!E] [!3!G,!2!C!1!E] | %36
 x [!3!G,!2!D!1!F] [!3!G,!2!D!1!F] [!3!G,!2!D!1!F] x [!3!G,!2!D!1!F] [!3!G,!2!D!1!F] [!3!G,!2!D!1!F] | %37
 x [!3!G,!2!C!1!E] [!3!G,!2!C!1!E] [!3!G,!2!C!1!E] x [!3!G,!2!C!1!E] [!3!G,!2!C!1!E] [!3!G,!2!C!1!E] | %38
 x [!3!G,!2!D!1!F] [!3!G,!2!D!1!F] [!3!G,!2!D!1!F] x [!3!G,!2!D!1!F] [!3!G,!2!D!1!F] [!3!G,!2!D!1!F] | %39
 [!3!G,!2!C!1!E]2 !5!C, !2!C x !3!G, x !4!E, | [!4!E,!3!G,!2!C!1!E]4 x4 |] %41
V:5
 x2 | !5!C,4 !4!E,4 | !4!F,4 !4!E,4 | !4!D,4 !6!F,,4 | !6!G,,4 !6!G,, x x2 | !6!^F,,4 !6!F,,4 | %6
 !6!G,,4 !5!C,4 | !4!D,4 !4!D,4 | !6!G,,4 !6!G,,4 | !6!G,,4 !6!G,,4 | !6!G,,4 !6!G,,4 | %11
 !6!G,,4 !6!G,,4 | !6!G,,2 !6!G,,2 !6!G,,2 x2 | !5!B,,4 !5!A,,4 | !6!^G,,4 !6!E,,4 | x2 x2 x2 x2 | %16
 !5!A,,4 x4 | !6!F,,4 !6!E,,4 | !6!F,,4 !6!F,,2 x2 | x2 !4!F,2 !4!F,2 !4!F,2 | !4!E,4 !5!B,,4 | %21
 !5!C, !4!E, !3!G, !2!C !5!C, x x2 | x2 !3!A,2 !3!A,2 !3!A,2 | x2 !3!G,2 !3!G,2 !3!G,2 | %24
 x2 !4!F,2 !4!F,2 !4!F,2 | x2 !4!E,2 !4!E,2 !4!E,2 | !4!D,2 !5!C,2 !4!D,2 !5!C,2 | %27
 !6!G,,2 !6!G,,2 !5!A,,2 !5!B,,2 | !5!C,4 !4!E,4 | !4!F,4 !4!E,4 | !4!D,4 !6!F,,4 | %31
 !6!G,,4 !6!G,, x x2 | !5!B,,4 !5!B,,4 | !5!C,4 !6!F,,4 | !6!G,,4 !6!G,,4 | !5!C,4 !5!C,4 | %36
 !5!C,4 !5!C,4 | !5!C,4 !5!C,4 | !5!C,4 !5!C,4 | !5!C,2 x2 !6!G,,2 !6!E,,2 | !5!C,4 x4 |] %41

